src/pos-icons/floppy-variant.svg

<svg height="24" viewBox="0 0 24 24" width="24" xmlns="http://www.w3.org/2000/svg"><path d="m3 3v18h18v-18zm9 7a2 2 0 0 1 2 2 2 2 0 0 1 -2 2 2 2 0 0 1 -2-2 2 2 0 0 1 2-2m0 5a1 1 0 0 1 1 1v3a1 1 0 0 1 -1 1 1 1 0 0 1 -1-1v-3a1 1 0 0 1 1-1z"/></svg>

<?xml version="1.0" encoding="UTF-8"?><!DOCTYPE svg PUBLIC "-//W3C//DTD SVG 1.1//EN" "http://www.w3.org/Graphics/SVG/1.1/DTD/svg11.dtd"><svg xmlns="http://www.w3.org/2000/svg" xmlns:xlink="http://www.w3.org/1999/xlink" version="1.1" id="mdi-floppy-variant" width="24" height="24" viewBox="0 0 24 24"><path d="M3,3V21H21V3H3M12,10A2,2 0 0,1 14,12A2,2 0 0,1 12,14A2,2 0 0,1 10,12A2,2 0 0,1 12,10M12,15A1,1 0 0,1 13,16V19A1,1 0 0,1 12,20A1,1 0 0,1 11,19V16A1,1 0 0,1 12,15Z" /></svg>
